icons-dark/actions/24/folder-sync.svg

<svg xmlns="http://www.w3.org/2000/svg" viewBox="0 0 24 24">
  <defs id="defs3051">
    <style type="text/css" id="current-color-scheme">
      .ColorScheme-Text {
        color:#f2f2f2
      }
      </style>
  </defs>
  <a transform="translate(1,1)">
 <path 
    style="fill:currentColor;fill-opacity:1;stroke:none" 
	d="m3 3v1 15h1 9v-1h-9v-8h3v-.009766l.007813.009766 2-2h8.992188v5h1v-8h-6.992188l-2-2-.007812.009766v-.009766h-6-1m13.5 11c-1.385 0-2.5 1.115-2.5 2.5 0 .433427.118052.834808.310547 1.189453l.759765-.759765c-.041025-.137094-.070312-.278897-.070312-.429688 0-.831.669-1.5 1.5-1.5.150791 0 .292594.029287.429688.070312l.759765-.759765c-.354645-.192495-.756026-.310547-1.189453-.310547m2.189453 1.310547l-.759765.759765c.041026.137094.070312.278897.070312.429688 0 .831-.669 1.5-1.5 1.5-.150791 0-.292594-.029286-.429688-.070312l-.759765.759765c.354645.192495.756026.310547 1.189453.310547 1.385 0 2.5-1.115 2.5-2.5 0-.433427-.118052-.834808-.310547-1.189453"
    class="ColorScheme-Text"
    />  
</a>
</svg>

<?xml version="1.0" encoding="UTF-8" standalone="no"?>
<!-- Created with Inkscape (http://www.inkscape.org/) -->

<svg
   xmlns:dc="http://purl.org/dc/elements/1.1/"
   xmlns:cc="http://creativecommons.org/ns#"
   xmlns:rdf="http://www.w3.org/1999/02/22-rdf-syntax-ns#"
   xmlns:svg="http://www.w3.org/2000/svg"
   xmlns="http://www.w3.org/2000/svg"
   xmlns:sodipodi="http://sodipodi.sourceforge.net/DTD/sodipodi-0.dtd"
   xmlns:inkscape="http://www.inkscape.org/namespaces/inkscape"
   width="24"
   height="24"
   id="svg3869"
   version="1.1"
   inkscape:version="0.91 r13725"
   sodipodi:docname="folder-sync.svg">
  <defs
     id="defs3871">
    <linearGradient
       id="linearGradient3257">
      <stop
         offset="0"
         style="stop-color:#a50000;stop-opacity:1"
         id="stop3259" />
      <stop
         offset="1"
         style="stop-color:#e73800;stop-opacity:1"
         id="stop3261" />
    </linearGradient>
  </defs>
  <sodipodi:namedview
     id="base"
     pagecolor="#ffffff"
     bordercolor="#666666"
     borderopacity="1.0"
     inkscape:pageopacity="0.0"
     inkscape:pageshadow="2"
     inkscape:zoom="22.627416"
     inkscape:cx="5.4926209"
     inkscape:cy="10.264796"
     inkscape:document-units="px"
     inkscape:current-layer="layer1"
     showgrid="true"
     fit-margin-top="0"
     fit-margin-left="0"
     fit-margin-right="0"
     fit-margin-bottom="0"
     inkscape:window-width="1366"
     inkscape:window-height="709"
     inkscape:window-x="-4"
     inkscape:window-y="0"
     inkscape:window-maximized="1"
     inkscape:showpageshadow="false"
     inkscape:object-nodes="true"
     inkscape:snap-bbox="true">
    <inkscape:grid
       type="xygrid"
       id="grid4132" />
    <sodipodi:guide
       position="4,18"
       orientation="18,0"
       id="guide4138" />
    <sodipodi:guide
       position="5,3"
       orientation="0,18"
       id="guide4140" />
    <sodipodi:guide
       position="20,2.0000174"
       orientation="-18,0"
       id="guide4142" />
    <sodipodi:guide
       position="2,21"
       orientation="0,-18"
       id="guide4144" />
    <sodipodi:guide
       position="3,19.000017"
       orientation="16,0"
       id="guide4146" />
    <sodipodi:guide
       position="2,4"
       orientation="0,16"
       id="guide4148" />
    <sodipodi:guide
       position="21,20"
       orientation="-16,0"
       id="guide4150" />
    <sodipodi:guide
       position="2,20"
       orientation="0,-16"
       id="guide4152" />
  </sodipodi:namedview>
  <metadata
     id="metadata3874">
    <rdf:RDF>
      <cc:Work
         rdf:about="">
        <dc:format>image/svg+xml</dc:format>
        <dc:type
           rdf:resource="http://purl.org/dc/dcmitype/StillImage" />
        <dc:title></dc:title>
      </cc:Work>
    </rdf:RDF>
  </metadata>
  <g
     inkscape:label="Capa 1"
     inkscape:groupmode="layer"
     id="layer1"
     transform="translate(-326,-532.3622)">
    <g
       transform="translate(327,-497)"
       id="layer1-1"
       inkscape:label="Capa 1">
      <path
         id="rect4069"
         transform="translate(0,1030.3622)"
         d="m 3,3 0,1 0,15 1,0 9,0 0,-1 -9,0 0,-8 3,0 L 7,9.99023 7.00781,10 l 2,-2 L 18,8 l 0,5 1,0 0,-8 -6.992188,0 -2,-2 L 10,3.0097656 10,3 4,3 3,3 Z m 13.5,11 c -1.385,0 -2.5,1.115 -2.5,2.5 0,0.433427 0.118052,0.834808 0.310547,1.189453 l 0.759765,-0.759765 C 15.029287,16.792594 15,16.650791 15,16.5 15,15.669 15.669,15 16.5,15 c 0.150791,0 0.292594,0.02929 0.429688,0.07031 l 0.759765,-0.759765 C 17.334808,14.118052 16.933427,14 16.5,14 Z m 2.189453,1.310547 -0.759765,0.759765 C 17.970714,16.207406 18,16.349209 18,16.5 18,17.331 17.331,18 16.5,18 16.349209,18 16.207406,17.97071 16.070312,17.92969 l -0.759765,0.759765 C 15.665192,18.881948 16.066573,19 16.5,19 17.885,19 19,17.885 19,16.5 19,16.066573 18.881948,15.665192 18.689453,15.310547 Z"
         style="fill:#f2f2f2;fill-opacity:1;stroke:none"
         inkscape:connector-curvature="0" />
    </g>
  </g>
</svg>
